X: 2
M:6/8
L:1/8
K:D
f/2g/2|afd B2 d|A2 A A2 B|d2 d {f}e>de|f3 e2 f/2g/2|
afd B2 d|A2 A A2 B|d2 f {f}e>de|d3 d z||
d>ed dfa|bc'd' a2 b|g2 a f2 g|e3-e2||
K:G
b|bgb b>^c'd'|afa a>^c'd'|g>fg eag|fdd d2 d|
ece e>fg|d>Bd def|{a}gfg ad'c'|bgg g2||
e3 gfe|fb>b b2 a|g>fe f>e^d|e3-e z B/2A/2||
e3 gfe|fbb b2 a|g>fe fe^d|e3-e z|
d'/2c'/2|b2 g a2 f|g2 e deg|[d3f3a3] [d3f3a3]|[d3f3a3] [d2d'2] c'|
[B2b2] g [A2a2] f|[G2g2] e d2 e|g3 g3|[B3d3g3]-[B2d2g2]||

